!!!!SEGMENT: pl-cz--i-10--003_engel-jan--requiem-domine-jesu-christe.krn
!!!cenid: 17xx:878
!!!COM: Engel, Jan
!!!COM-rismID: pe30009138
!!!CDT: <1772->1788
!!!CNT:
!!!OPR: Requiem
!!!OTL: Domine Jesu Christe
!!!OMV: 003
!!!PDT:
!!!AGN: Sacred; Requiem
!!!SMS-siglum: PL-CZ
!!!SMS-shelfmark: I-10
!!!SMS-shelfwork: 001-003 M
!!!SMS-variant:
!!!SMS-altvar:
!!!NIFC-rismSourceID: 300000291
!!!NIFC-rismChildID: 300000291
!!!NIFC-islandoraID:
!!!URL-pdf-islandora:
!!!URL-scan:
!!!ONB-nifc: UWAGA: części Requiem: Requiem, Dies irae, Domine Jesu Christe, Sanctus et Benedictus, Osanna, Agnus Dei
!!!AIN: 1 alto 2 clars 4 empty 2 flt 1 tenor 2 viola 2 violn 1 vox
!!!key:
**kern	**dynam	**kern	**kern	**kern	**dynam	**kern	**dynam	**kern	**text	**kern	**text	**kern	**text	**dynam	**kern	**kern	**kern	**kern	**kern	**kern	**kern
*part15	*part15	*part14	*part13	*part12	*part12	*part11	*part11	*part10	*part10	*part9	*part9	*part8	*part8	*part8	*part7	*part6	*part5	*part4	*part3	*part2	*part1
*	*	*group4	*group4	*group4	*	*group4	*	*group3	*	*group3	*	*group3	*	*	*group3	*group2	*group2	*group1	*group1	*group1	*group1
*staff15	*	*staff14	*staff13	*staff12	*	*staff11	*	*staff10	*staff10	*staff9	*staff9	*staff8	*staff8	*	*staff7	*staff6	*staff5	*staff4	*staff3	*staff2	*staff1
*Iempty	*	*Iviola	*Iviola	*Ivioln	*	*Ivioln	*	*Iempty	*	*Itenor	*	*Ialto	*	*	*Ivox	*Iempty	*Iempty	*Iclars	*Iclars	*Iflt	*Iflt
*I"Fundamento.	*	*I"Viola IIda	*I"Viola Ima	*I"Violino Secondo.	*	*I"Violino. Primo.	*	*I"Baſso.	*	*I"Tenore.	*	*I"Alto.	*	*	*I"Canto.	*I"Cornu Secondo in Dis.	*I"Cornu Primo in Dis	*I"Clarinetto Secondo in B.	*I"Clarinetto Primo in B.	*I"Flauto Secondo.	*I"Flauto Primo
*I'org	*	*I'vla II	*I'vla I	*I'vl II	*	*I'vl I	*	*I'B	*	*I'T	*	*I'A	*	*	*I'C	*I'cor II	*I'cor I	*I'cl II	*I'cl I	*I'fl II	*I'fl I
*clefF4	*	*clefC3	*clefC3	*clefG2	*	*clefG2	*	*clefF4	*	*clefC4	*	*clefC3	*	*	*clefC1	*clefG2	*clefG2	*clefG2	*clefG2	*clefG2	*clefG2
*	*	*	*	*	*	*	*	*	*	*	*	*	*	*	*	*ITrd5c9	*ITrd5c9	*ITrd1c2	*ITrd1c2	*	*
*k[b-e-a-]	*	*k[b-e-a-]	*k[b-e-a-]	*k[b-e-a-]	*	*k[b-e-a-]	*	*k[b-e-a-]	*	*k[b-e-a-]	*	*k[b-e-a-]	*	*	*k[b-e-a-]	*k[b-e-a-]	*k[b-e-a-]	*k[b-e-a-]	*k[b-e-a-]	*k[b-e-a-]	*k[b-e-a-]
*E-:	*	*E-:	*E-:	*E-:	*	*E-:	*	*E-:	*	*E-:	*	*E-:	*	*	*E-:	*E-:	*E-:	*E-:	*E-:	*E-:	*E-:
*M4/4	*	*M4/4	*M4/4	*M4/4	*	*M4/4	*	*M4/4	*	*M4/4	*	*M4/4	*	*	*M4/4	*M4/4	*M4/4	*M4/4	*M4/4	*M4/4	*M4/4
*met(c)	*	*met(c)	*met(c)	*met(c)	*	*met(c)	*	*met(c)	*	*met(c)	*	*met(c)	*	*	*met(c)	*met(c)	*met(c)	*met(c)	*met(c)	*met(c)	*met(c)
=1	=1	=1	=1	=1	=1	=1	=1	=1	=1	=1	=1	=1	=1	=1	=1	=1	=1	=1	=1	=1	=1
!	!	!	!	!	!	!	!	!LO:TX:a:t=9.	!	!LO:TX:a:t=8	!	!LO:TX:a:t=8.	!	!	!	!	!	!	!	!	!
!	!	!	!	!	!	!	!	!LO:TX:a:i:t=Solo	!	!LO:TX:a:i:t=Solo	!	!	!	!	!	!	!	!	!	!	!
!LO:TX:a:i:t=Adagio e dolce	!	!LO:TX:a:Bi:t=Adagio e dolce	!LO:TX:a:i:t=Adagio e Dolce	!LO:TX:a:t=Adagio	!	!LO:TX:a:i:t=Andante e dolce	!	!LO:TX:a:i:t=Adagio	!	!LO:TX:a:i:t=Adagio	!	!LO:TX:a:i:t=Adagio	!	!	!LO:TX:a:i:t=Offertorium Tacet.	!LO:TX:a:i:t=Adagio	!LO:TX:a:i:t=Adagio	!LO:TX:a:i:t=Andte	!LO:TX:a:B:t=Andte	!LO:TX:a:i:t=Adagio e Dolce	!LO:TX:a:i:t=Adagio ê Dolce
!	!	!	!	!	!	!	!	!LO:TX:a:t=P:problem=oznaczenie metryczne C z ogonkiem	!	!	!	!	!	!	!	!	!	!	!	!	!
!LO:TX:a:t=P:problem=4,8,16 middle or right&colon; global	!	!	!LO:TX:a:t=P:problem=4,8,16 middle or right&colon; global	!	!	!	!	!LO:TX:a:t=P:problem=kolejność znaków BB- A- E-	!	!	!	!LO:TX:a:t=P:problem=oznaczenie metryczne C z ogonkiem	!	!	!	!	!	!	!	!	!
!LO:TX:a:t=P:problem=oznaczenie metryczne C z ogonkiem	!	!LO:TX:a:t=P:problem=oznaczenie metryczne C z ogonkiem	!LO:TX:a:t=P:problem=oznaczenie metryczne C z ogonkiem	!LO:TX:b:i:t=dolce	!	!	!	!	!	!LO:TX:a:t=P:problem=oznaczenie metryczne C z ogonkiem	!	!LO:TX:a:t=P:problem=kolejność znaków A- e- B-	!	!	!	!	!LO:TX:a:t=P:problem=4,8,16 middle or right&colon; global	!	!LO:TX:a:t=P:problem=4,8,16 middle or right&colon; global	!	!LO:TX:a:t=P:problem=4,8,16 middle or right&colon; global
!LO:TX:a:t=P:problem=kolejność znaków BB- AA- E-	!	!LO:TX:a:t=P:problem=kolejność znaków A- e- B-	!LO:TX:a:t=P:problem=kolejność znaków A- e- B-	!LO:TX:a:t=P:problem=oznaczenie metryczne C z ogonkiem	!	!LO:TX:a:t=P:problem=oznaczenie metryczne C z ogonkiem	!	!	!	!	!	!	!	!	!	!LO:TX:a:t=P:problem=oznaczenie metryczne C z ogonkiem	!LO:TX:a:t=P:problem=oznaczenie metryczne C z ogonkiem	!LO:TX:a:t=P:problem=oznaczenie metryczne C z ogonkiem	!LO:TX:a:t=P:problem=oznaczenie metryczne C z ogonkiem	!LO:TX:a:t=P:problem=oznaczenie metryczne C z ogonkiem	!LO:TX:a:t=P:problem=oznaczenie metryczne C z ogonkiem
4E-\	.	2r	8.e-\L	2r	.	8.e-/L	.	00r	.	00r	.	00r	.	.	1ryy	2r	8e-\L	2r	8.ee-\L	2r	8.ee-\L
.	.	.	.	.	.	.	.	.	.	.	.	.	.	.	.	.	8e-\	.	.	.	.
.	.	.	16e-\K	.	.	16e-/K	.	.	.	.	.	.	.	.	.	.	.	.	16ee-\Jk	.	16ee-\K
4r	.	.	8e-\	.	.	8e-/	.	.	.	.	.	.	.	.	.	.	8e-\	.	8ee-\L	.	8ee-\
.	.	.	8e-\J	.	.	8e-/J	.	.	.	.	.	.	.	.	.	.	8e-\J	.	8ee-\J	.	8ee-\J
!	!	!	!	!	!	!LO:TX:a:t=P:problem=4,8,16 middle or right&colon; global	!	!	!	!	!	!	!	!	!	!	!	!LO:TX:a:t=P:problem=4,8,16 middle or right&colon; global	!	!	!
2r	.	8.B-/L	8b-\L	8.B-/L	.	8b-\L	.	.	.	.	.	.	.	.	.	8.B-/L	8b-\L	8.b-\L	8bb-\L	8.b-/L	8bb-\L
.	.	.	8b-\	.	.	8b-\	.	.	.	.	.	.	.	.	.	.	8b-\	.	8bb-\	.	8bb-\
.	.	16B-/K	.	16B-/K	.	.	.	.	.	.	.	.	.	.	.	16B-/K	.	16b-\K	.	16b-/K	.
.	.	8B-/	8b-\	8B-/	.	8b-\	.	.	.	.	.	.	.	.	.	8B-/	8b-\	8b-\	8bb-\	8b-/	8bb-\
.	.	8B-/J	8b-\J	8B-/J	.	8b-\J	.	.	.	.	.	.	.	.	.	8B-/J	8b-\J	8b-\J	8bb-\J	8b-/J	8bb-\J
=2	=2	=2	=2	=2	=2	=2	=2	=2	=2	=2	=2	=2	=2	=2	=2	=2	=2	=2	=2	=2	=2
!	!	!LO:TX:a:t=P:problem=4,8,16 middle or right&colon; global	!	!	!	!LO:TX:a:t=P:problem=mixed beam	!	!	!	!	!	!	!	!	!	!LO:TX:a:t=P:problem=4,8,16 middle or right&colon; global	!	!	!	!LO:TX:a:t=P:problem=4,8 middle or right&colon; global	!
8.E-\L	.	8e-\L	8ee-\L	8e-/L	.	8ee-\L	.	.	.	.	.	.	.	.	1ryy	8e-\L	8ee-\L	8ee-\L	8gg\L	8ee-\L	8eee-\L
.	.	8e-\J	8ee-\	8e-/	.	8g/	.	.	.	.	.	.	.	.	.	8e-\J	8ee-\	8ee-\	8gg\	8ee-\J	8eee-\
16E-\Jk	.	.	.	.	.	.	.	.	.	.	.	.	.	.	.	.	.	.	.	.	.
16E-\LL	.	16e-\LL	8ee-\	8e-/	.	8g/	.	.	.	.	.	.	.	.	.	16e-\LL	8ee-\	8ee-\	8gg\	16ee-\LL	8eee-\
16F\	.	16f\	.	.	.	.	.	.	.	.	.	.	.	.	.	16f\	.	.	.	16ff\	.
16G\	.	16g\	8ee-\J	8e-/J	.	8g/J	.	.	.	.	.	.	.	.	.	16g\	8ee-\J	8ee-\J	8gg\J	16gg\	8eee-\J
16A-\JJ	.	16a-\JJ	.	.	.	.	.	.	.	.	.	.	.	.	.	16a-\JJ	.	.	.	16aa-\JJ	.
!LO:TX:a:t=P:problem=mixed beam	!	!LO:TX:a:t=P:problem=mixed beam	!	!	!	!	!	!	!	!	!	!	!	!	!	!LO:TX:a:t=P:problem=mixed beam	!	!	!	!	!
8B-\L	.	8b-\L	8ee-\L	8e-/L	.	8g/L	.	.	.	.	.	.	.	.	.	8b-\L	8ee-\L	8ee-\L	8gg\L	8bb-\L	8eee-\L
8BB-/J	.	8B-/J	8dd\J	8d/J	.	8f/J	.	.	.	.	.	.	.	.	.	8B-/J	8dd\J	8dd\J	8ff\J	8bb-\J	8ddd\J
8r	.	8r	8r	8r	.	8r	.	.	.	.	.	.	.	.	.	8r	8r	8r	8r	8r	8r
8E-\	.	8g\	8b-\	8g/	.	8b-\	.	.	.	.	.	.	.	.	.	8g\	8b-\	8g/	8b-\	8gg\	8bb-\
=3	=3	=3	=3	=3	=3	=3	=3	=3	=3	=3	=3	=3	=3	=3	=3	=3	=3	=3	=3	=3	=3
8.E-\L	.	8a-\L	8cc\L	(8a-/L	.	(8cc\L	.	.	.	.	.	.	.	.	1ryy	8a-\L	8cc\L	8a-/L	8cc\L	8aa-\L	8ccc\L
.	.	8g\J	8b-\J	8g/J)	.	8b-\J)	.	.	.	.	.	.	.	.	.	8g\J	8b-\J	8g/J	8b-\J	8gg\J	8bb-\J
16E-\Jk	.	.	.	.	.	.	.	.	.	.	.	.	.	.	.	.	.	.	.	.	.
8E-\L	.	8a-\L	8cc\L	8a-/L	.	8cc\L	.	.	.	.	.	.	.	.	.	8a-\L	8cc\L	8a-/L	8cc\L	8aa-\L	8ccc\L
8E-\J	.	16g\L	16b-\L	(16g/L	.	16b-\L	.	.	.	.	.	.	.	.	.	16g\L	16b-\L	16g/L	16b-\L	16gg\L	16bb-\L
.	.	16f\JJ	16a-\JJ	16f/JJ)	.	16a-\JJ	.	.	.	.	.	.	.	.	.	16f\JJ	16a-\JJ	16f/JJ	16a-\JJ	16ff\JJ	16aa-\JJ
8.E-\L	.	8g\L	8b-\L	8g/L	.	8b-/L	.	.	.	.	.	.	.	.	.	8g\L	8b-\L	8g/L	8b-\L	8gg\L	8bb-\L
.	.	8e-\J	8g\J	8e-/J	.	8g/J	.	.	.	.	.	.	.	.	.	8e-\J	8g\J	8e-/J	8g\J	8ee-\J	8gg\J
16E-\Jk	.	.	.	.	.	.	.	.	.	.	.	.	.	.	.	.	.	.	.	.	.
!	!	!	!	!LO:TX:a:t=P:problem=4,8,16 middle or right&colon; global	!	!	!	!	!	!	!	!	!	!	!	!	!	!	!	!	!
!	!	!	!	!LO:TX:a:t=P:problem=mixed beam	!	!LO:TX:a:t=P:problem=mixed beam	!	!	!	!	!	!	!	!	!	!	!	!	!	!	!
8E-\L	.	8r	8r	8ee-\L	.	8ee-\L	.	.	.	.	.	.	.	.	.	8r	8r	8r	8r	8r	8r
8E-\J	.	8e-\	8g\	8e-/J	.	8g/J	.	.	.	.	.	.	.	.	.	8e-\	8g\	8ee-\	8gg\	8ee-\	8gg\
!	!	!LO:LB:g=original	!LO:LB:g=original	!LO:LB:g=original	!	!LO:LB:g=original	!	!	!	!	!	!	!	!	!	!	!	!	!LO:LB:g=original	!LO:LB:g=original	!LO:LB:g=original
=4	=4	=4	=4	=4	=4	=4	=4	=4	=4	=4	=4	=4	=4	=4	=4	=4	=4	=4	=4	=4	=4
8.BB-/L	.	8f\L	8a-\L	8f/L	.	8a-/L	.	.	.	.	.	.	.	.	1ryy	8f\L	8a-\L	8ff\L	8aa-\L	8ff\L	8aa-\L
.	.	8e-\J	8g\J	8e-/J	.	8g/J	.	.	.	.	.	.	.	.	.	8e-\J	8g\J	8ee-\J	8gg\J	8ee-\J	8gg\J
16BB-/Jk	.	.	.	.	.	.	.	.	.	.	.	.	.	.	.	.	.	.	.	.	.
8BB-/L	.	8f\L	8a-\L	8f/L	.	8a-/L	.	.	.	.	.	.	.	.	.	8f\L	8a-\L	8ff\L	8aa-\L	8ff\L	8aa-\L
8BB-/J	.	16e-\L	16g\L	16e-/L	.	16g/L	.	.	.	.	.	.	.	.	.	16e-\L	16g\L	16ee-\L	16gg\L	16ee-\L	16gg\L
.	.	16d\JJ	16f\JJ	16d/JJ	.	16f/JJ	.	.	.	.	.	.	.	.	.	16B-\JJ	16f\JJ	16dd\JJ	16ff\JJ	16dd\JJ	16ff\JJ
!LO:LB:g=original	!	!	!	!	!	!	!	!	!	!	!	!	!	!	!	!LO:LB:g=original	!LO:LB:g=original	!	!	!	!
!	!	!	!	!	!	!	!	!	!	!	!	!	!	!	!	!LO:TX:a:t=P:problem=mixed beam	!	!	!	!	!
8E-/L	.	8e-\L	8g\L	8e-/L	.	8g/L	.	.	.	.	.	.	.	.	.	8e-\L	8g\L	8ee-\L	8gg\L	8ee-\L	8gg\L
8BB-/J	.	8d\	8f\	8d/J	.	8f/J	.	.	.	.	.	.	.	.	.	8B-/J	8f\J	8dd\J	8ff\J	8dd\	8ff\
!	!	!	!	!LO:TX:a:t=P:problem=mixed beam	!	!	!	!	!	!	!	!	!	!	!	!	!	!	!	!	!
8r	.	8b-\	8b-\	8b-\L	.	8b-/L	.	.	.	.	.	.	.	.	.	8r	8r	8r	8r	8bb-\	8bb-\
8B-\	.	8d\J	8f\J	8d/J	.	8f/J	.	.	.	.	.	.	.	.	.	[8B-/	[<8b-\	8dd\	8ff\	8dd\J	8ff\J
!	!	!	!	!	!	!	!	!	!	!	!	!	!	!	!	!	!	!LO:LB:g=original	!	!	!
=5	=5	=5	=5	=5	=5	=5	=5	=5	=5	=5	=5	=5	=5	=5	=5	=5	=5	=5	=5	=5	=5
8E-/L	.	8e-\L	8g\L	8e-/L	.	8g/L	.	00r	.	00r	.	00r	.	.	1ryy	4B-/]	4b-\]	8ee-\L	8gg\L	8ee-\L	8gg\L
8BB-/	.	8d\J	8f\	8d/J	.	8f/J	.	.	.	.	.	.	.	.	.	.	.	8dd\J	8ff\J	8dd\	8ff\
8BB-/	.	8B-\L	8B-\	8r	.	8b-/L	.	.	.	.	.	.	.	.	.	4B-/	4b-\	8r	8r	8bb-\	8bb-\
8BB-/J	.	8e-\J	8g\J	8e-/	.	8g/J	.	.	.	.	.	.	.	.	.	.	.	8ee-\	8gg\	8ee-\J	8gg\J
*tremolo	*	*	*	*	*	*	*	*	*	*	*	*	*	*	*	*	*	*	*	*	*
8BB-/L	.	8f\L	8a-\L	(8f/L	.	8a-/L	.	.	.	.	.	.	.	.	.	4B-/	4b-\	8ff\L	8aa-\L	8ff\L	8aa-\L
8BB-/	.	8e-\J	8g\	8e-/J)	.	8g/	.	.	.	.	.	.	.	.	.	.	.	8ee-\J	8gg\J	8ee-\	8gg\
8BB-/	.	8B-\L	8B-\	8r	.	8b-/	.	.	.	.	.	.	.	.	.	4B-/	4b-\	8r	8r	8bb-\	8bb-\
8BB-/J	.	8f\J	8a-\J	8f/	.	8a-/J	.	.	.	.	.	.	.	.	.	.	.	8ff\	8aa-\	8ff\J	8aa-\J
=6	=6	=6	=6	=6	=6	=6	=6	=6	=6	=6	=6	=6	=6	=6	=6	=6	=6	=6	=6	=6	=6
!	!	!	!LO:TX:a:t=P:problem=mixed beam	!	!	!	!	!	!	!	!	!	!	!	!	!	!	!	!	!	!
8BB-/L	.	8g\L	8b-\L	8g/L	.	(8b-/L	.	.	.	.	.	.	.	.	1ryy	[>1B-	[<1b-	8gg\L	8bb-\L	8gg\L	8bb-\L
8BB-/	.	8f\J	8a-\	8f/J	.	8a-/J)	.	.	.	.	.	.	.	.	.	.	.	8ff\J	8aa-\J	8ff\	8aa-\
!	!	!LO:TX:a:t=P:problem=mixed beam	!	!	!	!	!	!	!	!	!	!	!	!	!	!	!	!	!	!	!
8BB-/	.	8B-/L	8B-/	8r	.	8r	.	.	.	.	.	.	.	.	.	.	.	8r	8r	8bb-\	8bb-\
!	!	!	!	!	!	!	!	!	!	!	!	!	!	!	!	!	!	!	!	!	!LO:TX:a:t=b
!	!	!	!	!	!	!	!	!	!	!	!	!	!	!	!	!	!	!	!	!	!LO:SIC:s=8bb-:v
8BB-/J	.	8g\J	8b-\J	8g/	.	8b-/	.	.	.	.	.	.	.	.	.	.	.	8gg\	8bb-\	8gg\J	8aa-\J
8BB-/L	.	8a-\L	8cc\L	(8a-/L	.	(8cc\L	.	.	.	.	.	.	.	.	.	.	.	8aa-\L	8ccc\L	8aa-\L	8ccc\L
8BB-/	.	8g\J	8b-\J	8g/J)	.	8b-\J)	.	.	.	.	.	.	.	.	.	.	.	8gg\J	8bb-\J	8gg\J	8bb-\J
8BB-/	.	8r	8r	8r	.	8r	.	.	.	.	.	.	.	.	.	.	.	8r	8r	8r	8r
8BB-/J	.	8f\	8a-\	8f/	.	8a-/	.	.	.	.	.	.	.	.	.	.	.	8ff\	8aa-\	8ff\	8aa-\
=7	=7	=7	=7	=7	=7	=7	=7	=7	=7	=7	=7	=7	=7	=7	=7	=7	=7	=7	=7	=7	=7
!	!	!	!	!	!	!	!	!	!	!	!	!	!	!	!	!	!	!LO:N:vis=16.	!	!	!
8E-\L	.	8.e-\L	8.g\L	8.e-/L	.	8.g/L	.	.	.	.	.	.	.	.	1ryy	1B-]	1b-]	8.ee-\L	8.ggt\L	8.ee-\L	8.gg\L
8E-\	.	.	.	.	.	.	.	.	.	.	.	.	.	.	.	.	.	.	.	.	.
.	.	32d\LL	32f\LL	32d/LL	.	32f/LL	.	.	.	.	.	.	.	.	.	.	.	32dd\LL	32ff\LL	32dd\LL	32ff\LL
.	.	32e-\JJJ	32g\JJJ	32e-/JJJ	.	32g/JJJ	.	.	.	.	.	.	.	.	.	.	.	32ee-\JJJ	32gg\JJJ	32ee-\JJJ	32gg\JJJ
8D\	.	8f\L	8a-\L	8f/L	.	8a-/L	.	.	.	.	.	.	.	.	.	.	.	8ff\L	8aa-\L	8ff\L	8aa-\L
8E-\J	.	8e-\J	8g\J	8e-/J	.	8g/J	.	.	.	.	.	.	.	.	.	.	.	8ee-\J	8gg\J	8ee-\J	8gg\J
8BB-/L	.	8B-/	8f\	8d/	.	8f/	.	.	.	.	.	.	.	.	.	.	.	8dd\	8ff\	8b-/	8ff\
8BB-/	.	4f\	4a-\	4f/	.	4a-/	.	.	.	.	.	.	.	.	.	.	.	4ff\	4aa-\	4ff\	4aa-\
8BB-/	.	.	.	.	.	.	.	.	.	.	.	.	.	.	.	.	.	.	.	.	.
8BB-/J	.	8e-\	8g\	8e-/	.	8g/	.	.	.	.	.	.	.	.	.	.	.	8ee-\	8gg\	8ee-\	8gg\
*Xtremolo	*	*	*	*	*	*	*	*	*	*	*	*	*	*	*	*	*	*	*	*	*
!	!	!LO:LB:g=original	!LO:LB:g=original	!LO:LB:g=original	!	!LO:LB:g=original	!	!	!	!	!	!	!	!	!	!	!	!	!LO:LB:g=original	!LO:LB:g=original	!LO:LB:g=original
=8	=8	=8	=8	=8	=8	=8	=8	=8	=8	=8	=8	=8	=8	=8	=8	=8	=8	=8	=8	=8	=8
!	!	!	!	!LO:TX:a:t=P:problem=skreślony takt	!	!	!	!	!	!	!	!	!	!	!	!	!	!	!	!	!
4BB-/	.	8B-/	8f\	8d/	.	8f`/	.	.	.	.	.	.	.	.	1ryy	8r	8r	8dd\L	8ff\L	8b-/|	8ff\|
.	.	(8g\L	(8b-\L	(8g/L	.	(8b-/L	.	.	.	.	.	.	.	.	.	8g\L	8b-\L	8gg\	8bb-\	(8gg\L	(8bb-\L
(8D\L	.	8f\	8a-\	8f/	.	8a-/	.	.	.	.	.	.	.	.	.	8f\	8a-\	8ff\	8aa-\	8ff\	8aa-\
8F\J)	.	8e-\J)	8g\J)	8e-/J)	.	8g/J)	.	.	.	.	.	.	.	.	.	8e-\J	8g\J	8ee-\J	8gg\J	8ee-\J)	8gg\J)
!LO:TX:a:t=P:problem=mixed beam	!	!	!	!	!	!	!	!	!	!	!	!	!	!	!	!	!	!	!	!	!
8B-\L	.	8e-\L	8g\L	8e-/L	.	8g/L	.	.	.	.	.	.	.	.	.	8e-\L	8g\L	8ee-\L	8gg\L	8ee-\L	8gg\L
8BB-/J	.	8d\J	8f\J	8d/J	.	8f/J	.	.	.	.	.	.	.	.	.	8B-\J	8f\J	8dd\J	8ff\J	8dd\J	8ff\J
4r	.	4r	4r	4r	.	4r	.	.	.	.	.	.	.	.	.	4r	4r	4r	4r	4r	4r
!	!	!	!	!	!	!	!	!	!	!	!	!	!	!	!	!	!	!LO:LB:g=original	!	!	!
=9	=9	=9	=9	=9	=9	=9	=9	=9	=9	=9	=9	=9	=9	=9	=9	=9	=9	=9	=9	=9	=9
*	*	*	*	*	*	*	*below	*	*	*	*	*	*	*	*	*	*	*	*	*	*
!	!	!	!	!	!	!	!	!	!	!	!	!LO:TX:a:t=P:problem=4,8,16 middle or right&colon; global	!	!	!	!	!	!	!	!	!
!	!LO:DY:t=po	!	!	!	!	!LO:TX:b:t=P:problem=w tym głosie dynamika zapisana czerwonym kolorem	!	!	!	!	!	!LO:TX:a:i:t=Solo	!	!	!	!LO:TX:a:t=1.	!	!	!	!	!
4E-\	p	2r	8.e-\L	2r	.	8.e-/L	p	1r	.	2r	.	8.e-\	Ho-	.	1ryy	1r	1r	2r	8.ee-\L	2r	8.ee-\L
.	.	.	16e-\K	.	.	16e-/K	.	.	.	.	.	16e-\	-sti-	.	.	.	.	.	16ee-\Jk	.	16ee-\K
4r	.	.	8e-\	.	.	8e-/	.	.	.	.	.	8e-\	-as	.	.	.	.	.	8ee-\L	.	8ee-\
.	.	.	8e-\J	.	.	8e-/J	.	.	.	.	.	8e-\	et	.	.	.	.	.	8ee-\J	.	8ee-\J
!	!	!	!	!	!	!	!	!	!	!LO:TX:a:t=P:problem=4,8,16 middle or right&colon; global	!	!	!	!	!	!	!	!	!	!	!
4BB-/	.	8.B-/L	8b-\L	8.B-/L	.	8b-\L	.	.	.	8.B-\	Ho-	8b-\	pre-	.	.	.	.	8.b-\L	8bb-\L	8.b-\L	8bb-\L
.	.	.	8b-\	.	.	8b-\	.	.	.	.	.	8b-\	-ces	.	.	.	.	.	8bb-\	.	8bb-\
.	.	16B-/K	.	16B-/Jk	.	.	.	.	.	16B-\	-sti-	.	.	.	.	.	.	16b-\K	.	16b-\K	.
8r	.	8B-/	8b-\	8B-/L	.	8b-\	.	.	.	8B-\	-as	8b-\	ti-	.	.	.	.	8b-\	8bb-\	8b-\	8bb-\
8B-\	.	8B-/J	8b-\J	8B-/J	.	8b-\J	.	.	.	8B-\	et	8a-\	-bi	.	.	.	.	8b-\J	8aa-\J	8b-\J	8bb-\J
=10	=10	=10	=10	=10	=10	=10	=10	=10	=10	=10	=10	=10	=10	=10	=10	=10	=10	=10	=10	=10	=10
*	*	*	*	*	*	*	*	*	*	*	*	*	*	*	*	*	*	*2\right	*2\right	*	*
!LO:TX:a:t=P:problem=mixed beam	!	!	!	!	!	!	!	!	!	!	!	!	!	!	!	!	!	!	!	!	!
8e-\L	.	8e-\L	8ee-\L	8e-/L	.	8ee-\L	.	2r	.	8e-\	pre-	4.g\	Do-	.	1ryy	8.e-\L	8.e-\L	2ee-\	2gg\	8ee-\L	8eee-\L
8E-/J	.	8e-\J	8ee-\	8e-/J	.	8ee-\	.	.	.	8e-\	-ces	.	.	.	.	.	.	.	.	8ee-\J	8eee-\
.	.	.	.	.	.	.	.	.	.	.	.	.	.	.	.	16e-\K	16e-\K	.	.	.	.
4r	.	16e-\LL	8ee-\	16e-/LL	.	8ee-\	.	.	.	8e-\	ti-	.	.	.	.	8e-\	8e-\	.	.	16ee-\LL	8eee-\
.	.	16f\	.	16f/	.	.	.	.	.	.	.	.	.	.	.	.	.	.	.	16ff\	.
.	.	16g\	8ee-\J	16g/	.	8ee-\J	.	.	.	8e-\	-bi	8g\	-mi-	.	.	8e-\J	8e-\J	.	.	16gg\	8eee-\J
.	.	16a-\JJ	.	16a-/JJ	.	.	.	.	.	.	.	.	.	.	.	.	.	.	.	16aa-\JJ	.
!LO:LB:g=original	!	!	!	!	!	!	!	!	!	!	!	!	!	!	!	!	!	!	!	!	!
!LO:TX:b:i:t=dolce	!	!	!	!	!	!	!	!	!	!	!	!	!	!	!	!	!	!	!	!	!
8.BB-/L	.	4b-\	8.dd\L	4b-/	.	8.dd\L	.	8.BB-/	Ho-	8.d\	Do-	4f\	-ne	.	.	4B-/	4b-\	4dd\	4ff\	4bb-\	8.ddd\L
16BB-/Jk	.	.	16cc\Jk	.	.	16cc\Jk	.	16BB-/	-sti-	16c\	-mi-	.	.	.	.	.	.	.	.	.	16ccc\Jk
!	!	!	!LO:TX:a:t=P:problem=mixed beam	!	!	!	!	!	!	!	!	!	!	!	!	!	!	!	!	!	!
8BB-/L	.	8r	8b-\L	8d/L	.	8b-/L	.	8BB-/	-as	8B-\	-ne	8r	.	.	.	8r	8r	8r	8r	8r	8bb-\L
8BB-/J	.	8B-/	8B-/J	8f/J	.	8a-/J	.	8BB-/	et	8d\	et	8f\	et	.	.	8B-/	8B-/	8dd\	8ff\	8b-/	8bb-\J
!	!	!	!	!	!	!	!	!	!	!LO:LB:g=original	!	!LO:LB:g=original	!	!	!	!	!	!	!	!	!
=11	=11	=11	=11	=11	=11	=11	=11	=11	=11	=11	=11	=11	=11	=11	=11	=11	=11	=11	=11	=11	=11
!	!	!LO:TX:a:t=P:problem=mixed beam	!LO:TX:a:t=P:problem=mixed beam	!	!	!	!	!LO:TX:a:t=P:problem=4,8,16 middle or right&colon; global	!	!	!	!	!	!	!	!	!	!	!	!	!
8E-\L	.	8e-\L	8e-\L	8e-/L	.	8g/L	.	8E-\	pre-	8e-\	pre-	8g\	pre-	.	1ryy	8e-\L	8e-\L	8ee-\L	8gg\L	8ee-\L	8eee-\L
!	!LO:DY:t=po	!	!	!	!	!	!	!	!	!	!	!	!	!	!	!	!	!	!	!	!
8E-\J	p	8E-/J	8E-/J	8e-/	.	8g/	.	8E-\	-ces	8e-\	-ces	8g\	-ces	.	.	8e-\J	8e-\J	8ee-\	8gg\	8ee-\J	8eee-\J
16E-\LL	.	8r	8r	8e-/	.	8g/	.	16E-\LL	ti-	8e-\	ti-	8g\	ti-	.	.	16e-\LL	16e-\LL	8ee-\	8gg\	8r	8r
16F\	.	.	.	.	.	.	.	16F\JJ	.	.	.	.	.	.	.	16f\	16f\	.	.	.	.
16G\	.	8e-\	8e-\	8e-/J	.	8g/J	.	16G\LL	-bi	8e-\	-bi	8g\	-bi,	.	.	16g\	16g\	8ee-\J	8gg\J	8ee-\	8eee-\
16A-\JJ	.	.	.	.	.	.	.	16A-\JJ	.	.	.	.	.	.	.	16a-\JJ	16a-\JJ	.	.	.	.
!	!	!	!	!LO:LB:g=original	!	!	!	!	!	!	!	!	!	!	!	!	!LO:LB:g=original	!	!	!	!
!LO:TX:a:t=P:problem=mixed beam	!	!LO:TX:a:t=P:problem=mixed beam	!LO:TX:a:t=P:problem=mixed beam	!	!	!	!	!	!	!	!	!	!	!	!	!LO:TX:a:t=P:problem=mixed beam	!LO:TX:a:t=P:problem=mixed beam	!	!	!LO:TX:a:t=P:problem=mixed beam	!
8B-\L	.	8b-\L	8b-\L	8.e-/L	.	8.g/L	.	8.B-\	Do-	8.e-\	Do-	8.g\	Do-	.	.	8b-\L	8b-\L	8.ee-\L	8.gg\L	8bb-\L	8bb-\L
8BB-/	.	8B-/	8B-/	.	.	.	.	.	.	.	.	.	.	.	.	8B-/J	8B-/J	.	.	8b-/	8bb-\
.	.	.	.	16d/Jk	.	16f/Jk	.	16BB-/	-mi-	16d\	-mi-	16f\	-mi-	.	.	.	.	16dd\Jk	16ff\Jk	.	.
8BB-/	.	8c/	8c/	4d/	.	8f/L	.	4BB-/	-ne	4d\	-ne	4f\	-ne	.	.	4r	4r	4dd\	8ff\L	8cc/	8ccc\
8BB-/J	.	8d/J	8d/J	.	.	8b-/J	.	.	.	.	.	.	.	.	.	.	.	.	8bb-\J	8dd/J	8ddd\J
!	!	!	!	!	!	!LO:LB:g=original	!	!LO:LB:g=original	!	!	!	!	!	!	!	!LO:LB:g=original	!	!	!	!LO:LB:g=original	!LO:LB:g=original
=12	=12	=12	=12	=12	=12	=12	=12	=12	=12	=12	=12	=12	=12	=12	=12	=12	=12	=12	=12	=12	=12
*	*	*	*	*	*	*	*	*	*	*2\right	*	*	*	*	*	*	*	*	*	*	*
!LO:TX:b:i:t=dolce	!	!	!	!	!	!	!	!	!	!	!	!	!	!	!	!LO:TX:a:t=1.	!	!	!	!	!
8r	.	4e-\	4e-\	2.e-/	f	4r	.	4r	.	2.e-\	Lau-	4r	.	.	1ryy	1r	1r	2.ee-\	4r	4ee-\	4eee-\
8E-\L	.	.	.	.	.	.	.	.	.	.	.	.	.	.	.	.	.	.	.	.	.
8G\	.	4r	4r	.	.	4g/	.	4E-\	Lau-	.	.	4g\	Lau-	.	.	.	.	.	4gg\	4r	4r
8E-\J	.	.	.	.	.	.	.	.	.	.	.	.	.	.	.	.	.	.	.	.	.
4BB-/	.	4r	4r	.	.	4.f/	.	[8B-\	-dis	.	.	4.f\	-dis	.	.	.	.	.	4.ff\	4r	4r
.	.	.	.	.	.	.	.	8B-\]	.	.	.	.	.	.	.	.	.	.	.	.	.
!	!	!	!	!	!LO:DY:t=p&colon;	!	!	!	!	!	!	!	!	!	!	!	!	!	!	!	!
[<4B-\	.	4b-\	4b-\	4d/	p	.	.	[<4B-\	of-	8d\	-dis	.	.	.	.	.	.	4dd\	.	4bb-\	4bb-\
.	.	.	.	.	.	8g/	.	.	.	8d\	of-	8g\	of-	.	.	.	.	.	8gg\	.	.
!	!	!LO:LB:g=original	!LO:LB:g=original	!	!	!	!	!	!	!	!	!	!	!	!	!	!	!	!LO:LB:g=original	!	!
=13	=13	=13	=13	=13	=13	=13	=13	=13	=13	=13	=13	=13	=13	=13	=13	=13	=13	=13	=13	=13	=13
4B-\]	.	4b-\	4b-\	2c/	.	2e-T/	.	4B-\]	-fe-	4.c\	-fe-	4.e-\	-fe-	.	1ryy	2r	2r	2cc\	2ee-\	4bb-\	4bb-\
4An\	.	4an\	4an\	.	.	.	.	4An\	-ri-	.	.	.	.	.	.	.	.	.	.	4aan\	4aan\
.	.	.	.	.	.	.	.	.	.	8c\	-ri-	8e-\	-ri-	.	.	.	.	.	.	.	.
!LO:TX:a:t=P:problem=mixed beam	!	!	!	!	!	!	!	!	!	!	!	!	!	!	!	!	!	!	!	!	!
8B-\L	.	4b-\	4b-\	(8B-/L	.	(8d/L	.	4B-\	-mus	4B-\	-mus	4d\	-mus	.	.	8.B-/L	8.B-/L	4b-\	4dd\	4bb-\	4bb-\
8BB-/	.	.	.	8d/	.	8f/	.	.	.	.	.	.	.	.	.	.	.	.	.	.	.
.	.	.	.	.	.	.	.	.	.	.	.	.	.	.	.	16B-/K	16B-/K	.	.	.	.
8D/	.	8r	8r	8f/	.	8b-/	.	4r	.	8r	.	8r	.	.	.	8B-/	8B-/	8r	8r	8r	8r
8BB-/J	.	8b-\	8dd\	8b-/J)	.	8dd/J)	.	.	.	8B-\	tu	8d\	tu	.	.	8B-/J	8B-/J	8b-\	8dd\	8bb-\	8ddd\
!	!	!	!	!	!	!	!	!	!	!LO:LB:g=original	!	!	!	!	!	!	!	!	!	!	!
=14	=14	=14	=14	=14	=14	=14	=14	=14	=14	=14	=14	=14	=14	=14	=14	=14	=14	=14	=14	=14	=14
4F\	.	8.b-\L	8.dd\L	8.b-/L	.	8.dd\L	.	1r	.	8.B-\	Sus-	8.d\	Sus-	.	1ryy	4f\	4f\	8.b-\L	8.dd\L	8.bb-\L	8.ddd\L
.	.	16an\Jk	16cc\Jk	16an/Jk	.	16cc\Jk	.	.	.	16An\	-ci-	16c\	-ci-	.	.	.	.	16a\Jk	16cc\Jk	16aan\Jk	16ccc\Jk
4F\	.	8a\L	8cc\L	8a/L	.	8cc\L	.	.	.	8A\	-pe	8c\	-pe	.	.	4r	4r	8a\L	8cc\L	8aa\L	8ccc\L
.	.	8a\J	8cc\J	8a/J	.	8cc\J	.	.	.	8A\	pro	8c\	pro	.	.	.	.	8a\J	8cc\J	8aa\J	8ccc\J
4F\	.	8a\L	8cc\L	8a/L	.	8cc\L	.	.	.	8A\	a-	8c\	a-	.	.	2r	2r	(8a\L	8cc\L	8aa\L	8ccc\L
.	.	8b-\	8dd\	8b-/	.	8dd\	.	.	.	8B-\	-ni-	8d\	-ni-	.	.	.	.	8b-\	8dd\	8bb-\	8ddd\
!	!	!	!	!LO:SIC:s=8b-:v	!	!	!	!	!	!	!	!	!	!	!	!	!	!	!	!	!
4F\	.	8b-\	8dd\	8cc/	.	8dd\	.	.	.	8B-\	-ma-	8d\	-ma-	.	.	.	.	8b-\	8dd\	8bb-\	8ddd\
!	!	!	!	!LO:SIC:s=8cc:v	!	!	!	!	!	!	!	!	!LO:MO:mod=-bus	!	!	!	!	!	!	!	!
.	.	8cc\J	8ee-\J	8dd/J	.	8ee-\J	.	.	.	8c\	-bus	8e-\	-biſ	.	.	.	.	8cc\J)	8ee-\J	8ccc\J	8eee-\J
!	!	!	!	!	!	!	!	!	!	!	!	!LO:LB:g=original	!	!	!	!	!	!	!	!	!
=15	=15	=15	=15	=15	=15	=15	=15	=15	=15	=15	=15	=15	=15	=15	=15	=15	=15	=15	=15	=15	=15
!LO:TX:b:i:t=dolce	!	!	!	!	!	!	!	!	!	!	!	!	!	!	!	!	!	!	!	!	!
8.BB-/L	.	8cc\L	8ee-\L	8cc\L	.	8ee-\L	.	4BB-/	qua-	8c\	il-	8e-\	il-	.	1ryy	8.B-/L	8.B-/L	8cc\L	8ee-\L	8ccc\L	8eee-\L
.	.	8b-\J	8dd\J	8b-\J	.	8dd\J	.	.	.	8B-\	-lis	8d\	-lis	.	.	.	.	8b-\J	8dd\J	8bb-\J	8ddd\J
16BB-/Jk	.	.	.	.	.	.	.	.	.	.	.	.	.	.	.	16B-/K	16B-/K	.	.	.	.
8BB-/L	.	4r	4r	4dd\	.	4bb-\	.	4BB-/	-rum	4r	.	4r	.	.	.	8B-/	8B-/	4r	4r	4r	4r
8BB-/J	.	.	.	.	.	.	.	.	.	.	.	.	.	.	.	8B-/J	8B-/J	.	.	.	.
!LO:LB:g=original	!	!	!	!	!	!	!	!	!	!	!	!	!	!	!	!	!	!	!	!	!
!LO:TX:a:t=P:problem=mixed beam	!	!	!	!	!	!LO:TX:b:i:t=dolce:problem=zapisane czerwonym kolorem	!	!	!	!	!	!	!	!	!	!	!	!	!	!	!
8F\L	.	4r	4r	8cc\	.	8r	.	8.F\	ho-	4r	.	2r	.	.	.	4f\	4f\	2r	2r	4r	4r
8FF/J	.	.	.	(8an/L	.	(8cc\L	.	.	.	.	.	.	.	.	.	.	.	.	.	.	.
.	.	.	.	.	.	.	.	16F\	-di-	.	.	.	.	.	.	.	.	.	.	.	.
8r	.	8r	8r	8b-/	.	8dd\	.	8F\	-e	8r	.	.	.	.	.	4r	4r	.	.	8r	8r
8FF/	.	8cc\	8ee-\	8cc/J)	.	8ee-\J)	.	8F\	me-	8e-\	Me-	.	.	.	.	.	.	.	.	8ccc\	8eee-\
!	!	!	!	!LO:LB:g=original	!	!	!	!LO:LB:g=original	!	!	!	!	!	!	!	!	!	!LO:LB:g=original	!	!	!
=16	=16	=16	=16	=16	=16	=16	=16	=16	=16	=16	=16	=16	=16	=16	=16	=16	=16	=16	=16	=16	=16
*	*	*2\right	*2\right	*2\right	*	*2\right	*	*	*	*	*	*	*	*	*	*	*	*	*	*2\right	*2\right
!	!	!LO:TX:a:t=P:problem=dopisany ołówkiem dźwięk 2c\	!	!	!	!	!	!	!	!	!	!	!	!	!	!LO:TX:a:t=5	!LO:TX:a:t=5	!	!	!	!
8BB-/L	.	2b-\	2dd\	2b-\	.	2dd\	.	8.B-\	-mo-	8.d\	-mo-	2r	.	.	1ryy	00r	00r	2r	2r	2bb-\	2ddd\
8BB-/J	.	.	.	.	.	.	.	.	.	.	.	.	.	.	.	.	.	.	.	.	.
.	.	.	.	.	.	.	.	16B-\	-ri-	16d\	-ri-	.	.	.	.	.	.	.	.	.	.
16BB-/LL	.	.	.	.	.	.	.	4B-\	-am	4d\	-am	.	.	.	.	.	.	.	.	.	.
16C/	.	.	.	.	.	.	.	.	.	.	.	.	.	.	.	.	.	.	.	.	.
16D/	.	.	.	.	.	.	.	.	.	.	.	.	.	.	.	.	.	.	.	.	.
16E-/JJ	.	.	.	.	.	.	.	.	.	.	.	.	.	.	.	.	.	.	.	.	.
!	!	!	!	!	!	!	!	!	!	!LO:LB:g=original	!	!	!	!	!	!	!	!	!	!	!
8F/L	.	4an\	4cc\	8r	.	8r	.	8.An\	fa-	8.c\	fa-	4r	.	.	.	.	.	4r	4r	4aan\	4ccc\
!	!	!	!	!	!	!	!LO:DY:t=po	!	!	!	!	!	!	!	!	!	!	!	!	!	!
8C/J	.	.	.	(8an/L	.	(8cc\L	p	.	.	.	.	.	.	.	.	.	.	.	.	.	.
.	.	.	.	.	.	.	.	16G\	-ci-	16B-\	-ci-	.	.	.	.	.	.	.	.	.	.
4FF/	.	8r	8r	8b-/	.	8dd\	.	4F\	-mus	8An\	-mus	8r	.	.	.	.	.	8r	8r	8r	8r
.	.	8a\	8cc\	8a/J)	p	8cc\J)	.	.	.	8A\	fac	8c\	fac	.	.	.	.	8a\	8cc\	8aa\	8ccc\
!	!	!	!	!	!	!LO:LB:g=original	!	!	!	!	!	!	!	!	!	!	!	!	!	!LO:LB:g=original	!LO:LB:g=original
=17	=17	=17	=17	=17	=17	=17	=17	=17	=17	=17	=17	=17	=17	=17	=17	=17	=17	=17	=17	=17	=17
!	!LO:DY:t=po	!	!	!	!	!	!	!	!	!	!	!	!	!	!	!	!	!	!	!	!
8r	p	8b-\L	8dd-X\L	8r	.	8r	.	8r	.	8B-\	e-	8d-X\	e-	.	1ryy	.	.	8b-\L	8dd-X\L	8bb-\L	8ddd-X\L
(8F\L	.	8an\J	8cc\J	8an/L	.	(8cc\L	.	8F\	fac	8An\	-as	8c\	-as	.	.	.	.	8a\J	8cc\J	8aan\J	8ccc\J
8En\	.	8r	8r	8b-/	.	8dd-X\	.	8En\	e-	8r	.	8r	.	.	.	.	.	8r	8r	8r	8r
8F\J)	.	8a\	8cc\	8a/J	.	8cc\J)	.	8F\	-as	8A\	de	8c/	de	.	.	.	.	8a\	8cc\	8aa\	8ccc\
8r	.	8b-\L	8dd-X\L	8r	.	8r	.	8r	.	8B-\	mor-	8d-X/	mor-	.	.	.	.	8b-\L	8dd-X\L	8bb-\L	8ddd-X\L
8F\L	.	8a\J	8cc\J	8a/L	.	(8cc\L	.	8F\	de	8A\	-te	8c/	-te	.	.	.	.	8a\J	8cc\J	8aa\J	8ccc\J
!	!	!	!	!	!	!	!	!	!	!	!	!	!	!	!	!	!	!LO:TX:a:t=P:problem=zbędna kreska taktowa	!	!	!
8En\	.	8r	8r	8b-/	.	8dd-X\	.	8En\	mor-	8r	.	8r	.	.	.	.	.	8r	8r	8r	8r
8F\J	.	8a\	8cc\	8a/J	.	8cc\J)	.	8F\	-te	8A\	tran-	8c/	tran-	.	.	.	.	8a\	8cc\	8aa\	8ccc\
!	!	!LO:LB:g=original	!LO:LB:g=original	!	!	!	!	!	!	!	!	!	!	!	!	!	!	!	!	!	!
=18	=18	=18	=18	=18	=18	=18	=18	=18	=18	=18	=18	=18	=18	=18	=18	=18	=18	=18	=18	=18	=18
!	!	!	!	!	!	!LO:TX:b:i:t=dolce:problem=zapisane czerwonym kolorem	!	!	!	!	!	!	!	!	!	!	!	!	!LO:SIC:s=8ccn:t=lub 8een:v	!	!
4BB-/	.	8b-\L	8dn\L	4b-\	.	4ddn\	.	4r	.	8B-\L	-si-	(8dn\L	-si-	.	1ryy	.	.	8b-\L	8bX\L	8bb-\L	8dddn\L
.	.	8ee-\	8g\	.	.	.	.	.	.	8e-\J	.	8g\J)	.	.	.	.	.	8ee-\	8gg\	8ee-\	8ggg\
8r	.	8dd\	8f\	8r	.	8r	.	8r	.	8d\	-re	8f\	-re	.	.	.	.	8dd\	8ff\	8dd\	8fff\
!LO:TX:b:i:t=dol&colon;	!	!	!	!LO:TX:b:i:t=dol	!	!	!	!	!	!	!	!	!	!	!	!	!	!	!	!	!
8E-X\	.	8cc\J	8e-\J	8cc\	.	8ee-\	.	8E-X\	ad	8c\	ad	8e-\	ad	.	.	.	.	8cc\J	8ee-\J	8cc\J	8eee-\J
*	*	*	*	*	*	*	*	*2\right	*	*	*	*	*	*	*	*	*	*	*	*	*
!	!	!	!	!	!	!	!	!	!	!	!	!	!	!	!	!	!	!	!LO:LB:g=original	!	!
4F\	.	4b-\	4d\	4b-\	.	4dd\	.	2F\	vi-	(4B-\	vi-	(4d\	vi-	.	.	.	.	4b-\	4dd\	4bb-\	4ddd\
4FF/	.	4an\	4c\	4an/	.	4cc\	.	.	.	4An\)	.	4c\)	.	.	.	.	.	4a\	4cc\	4aan\	4ccc\
!	!	!	!	!	!	!	!	!LO:LB:g=original	!	!LO:LB:g=original	!	!LO:LB:g=original	!	!	!	!	!	!	!	!	!
=19	=19	=19	=19	=19	=19	=19	=19	=19	=19	=19	=19	=19	=19	=19	=19	=19	=19	=19	=19	=19	=19
8BB-/	.	4b-\	4B-/	8r	.	8r	.	8BB-/	-tam	4B-\	-tam	4B-/	-tam	.	1ryy	.	.	4b-\	4b-\	4bb-\	4bb-\
!	!	!	!	!LO:SIC:s=8an:v	!	!	!	!	!	!	!	!	!	!	!	!	!	!	!	!	!
(8F\L	p	.	.	8a-/L	.	(8cc\L	p	8F\	fac	.	.	.	.	.	.	.	.	.	.	.	.
8En\	.	8r	8r	8b-/	p	8dd-X\	.	8En\	e-	8r	.	8r	.	.	.	.	.	8r	8r	8r	8r
!	!	!	!	!	!	!	!	!	!	!	!	!	!	!LO:DY:a	!	!	!	!	!	!	!
8F\J)	.	8an\	8cc\	8a-/J	.	8cc\J)	.	8F\	-as	8An\	de	8c/	de	p	.	.	.	8a\	8cc\	8aan\	8ccc\
!LO:LB:g=original	!	!	!	!	!	!	!	!	!	!	!	!	!	!	!	!	!	!	!	!	!
8r	.	8b-\L	8dd-X\L	8r	.	8r	.	8r	.	8B-\	mor-	8d-X/	Mor-	.	.	.	.	8b-\L	8dd-X\L	8bb-\L	8ddd-X\L
!	!	!	!	!LO:SIC:s=8an:v	!	!LO:TX:b:i:t=dol&colon;:problem=zapisane czerwonym kolorem	!	!	!	!	!	!	!	!	!	!	!	!	!	!	!
8F\L	.	8a\J	8cc\J	8a-/L	.	(8cc\L	.	8F\	de	8A\	-te	8c/	-te	.	.	.	.	8a\J	8cc\J	8aa\J	8ccc\J
!	!	!	!	!	!LO:DY:t=fr&colon;	!	!	!	!	!	!	!LO:TX:a:t=P:problem=zbędna kreska taktowa	!	!	!	!	!	!	!	!	!
8En\	.	8r	8r	8b-/	f	8dd-X\	.	8En\	mor-	8r	.	8r	.	.	.	.	.	8r	8r	8r	8r
!	!	!	!	!	!	!	!	!	!	!	!	!	!	!LO:DY:t=fn&colon;	!	!	!	!	!	!	!
8F\J	.	8a\	8cc\	8a-/J	.	8cc\J)	.	8F\	-te	8A\	tran-	8c/	tran-	f	.	.	.	8a\	8cc\	8aa\	8ccc\
!	!	!	!	!LO:LB:g=original	!	!	!	!	!	!	!	!	!	!	!	!	!	!	!	!	!
=20	=20	=20	=20	=20	=20	=20	=20	=20	=20	=20	=20	=20	=20	=20	=20	=20	=20	=20	=20	=20	=20
!LO:TX:b:i:t=dol	!	!LO:TX:a:t=P:problem=mixed beam	!	!	!	!	!	!	!	!	!	!	!	!	!	!	!	!	!	!	!
4BB-/	.	8B-/L	8dn\L	4b-\	.	4ddn\	.	4r	.	(8B-\L	-si-	8dn\L	-si-	.	1ryy	1r	1r	8b-\L	8ddn\L	8bb-\L	8dddn\L
.	.	8e-\	8g\	.	.	.	.	.	.	8e-\J)	.	8g\J	.	.	.	.	.	8ee-\	8gg\	8eee-\	8ggg\
4E-\	.	8d\	8f\	8r	.	8r	.	8r	.	8d\	-re	8f\	-re	.	.	.	.	8dd\	8ff\	8ddd\	8fff\
!	!	!	!	!LO:TX:b:i:t=dol	!	!	!	!	!	!	!	!	!	!	!	!	!	!	!	!	!
.	.	8c\J	8e-\J	8cc\	.	8ee-\	.	8E-\	ad	8c\	ad	8e-\	ad	.	.	.	.	8cc\J	8ee-\J	8ccc\J	8eee-\J
4F\	.	4B-/	4d\	4b-\	.	4dd\	.	2F\	vi-	4B-\	vi-	4d\	vi-	.	.	.	.	4b-\	4dd\	4bb-\	4ddd\
!	!	!	!	!	!	!	!	!	!	!	!	!	!	!	!	!	!	!LO:SIC:s=4bn:v	!	!	!
4FF/	.	4An/	4c\	4an\	.	4cc\	.	.	.	4An\	.	4c\	.	.	.	.	.	4a-\	4cc\	4aan\	4ccc\
!	!	!	!	!	!	!LO:LB:g=original	!	!	!	!	!	!	!	!	!	!	!	!	!	!	!LO:LB:g=original
=21	=21	=21	=21	=21	=21	=21	=21	=21	=21	=21	=21	=21	=21	=21	=21	=21	=21	=21	=21	=21	=21
4BB-/	.	4b-\	4B-/	8b-/|	.	8b-/|	.	4BB-/	-tam	4B-\	-tam	4B-/	-tam	.	1ryy	4B-/	4b-\	8b-\|	8b-\	4bb-\	4bb-\
.	.	.	.	(8d/L	.	(8f/L	.	.	.	.	.	.	.	.	.	.	.	(8dd\L	8ff\L	.	.
4r	.	4b-\	4b-\	8e-/	.	8g/	.	4r	.	4r	.	4r	.	.	.	4B-/	4b-\	8ee-\	8gg\	4bb-\	4bb-\
.	.	.	.	8d/J)	.	8f/J)	.	.	.	.	.	.	.	.	.	.	.	8dd\J)	8ff\J	.	.
!	!	!	!	!	!	!	!	!	!	!	!	!	!	!	!	!	!	!LO:LB:g=original	!	!	!
4BB-/	.	[2b-\	2b-\	8b-/|	.	8b-/|	.	2r	.	2r	.	2r	.	.	.	4B-/	4b-\	8r	8r	2bb-\	2bb-\
.	.	.	.	(8e-/L	.	(8g/L	.	.	.	.	.	.	.	.	.	.	.	8ee-\L	8gg\L	.	.
4r	.	.	.	8f/	.	8a-/	.	.	.	.	.	.	.	.	.	4B-/	4b-\	8ff\	8aa-\	.	.
!	!	!	!LO:TX:a:t=P:problem=po tym takcie skreślony takt	!	!	!	!	!	!	!	!	!	!	!	!	!	!	!	!	!	!
.	.	.	.	8e-/J)	.	8g/J)	.	.	.	.	.	.	.	.	.	.	.	8ee-\J	8gg\J	.	.
!	!	!	!LO:LB:g=original	!	!	!	!	!	!	!	!	!	!	!	!	!	!	!	!	!LO:LB:g=original	!
=22	=22	=22	=22	=22	=22	=22	=22	=22	=22	=22	=22	=22	=22	=22	=22	=22	=22	=22	=22	=22	=22
!	!	!	!	!	!	!	!	!LO:TX:a:t=3	!	!LO:TX:a:t=2.	!	!LO:TX:a:t=2	!	!	!	!	!	!	!	!	!
4BB-/	.	4b-\]	4b-\	8b-/|	.	8b-/|	.	0r	.	0r	.	0r	.	.	1ryy	4B-/	4b-\	8r	8r	4bb-\	4bb-\
.	.	.	.	(8f/L	.	(8a-/L	.	.	.	.	.	.	.	.	.	.	.	8ff\L	8aa-\L	.	.
4r	.	8r	8r	8g/	.	8b-/	.	.	.	.	.	.	.	.	.	8r	8r	8gg\	8bb-\	8r	8r
.	.	8f\	8a-\	8f/J)	.	8a-/J)	.	.	.	.	.	.	.	.	.	8f\	8a-\	8ff\J	8aa-\J	8ff\	8aa-\
8E-\L	.	8.e-\L	8.g\L	8.e-/L	.	8.g/L	.	.	.	.	.	.	.	.	.	8.e-\L	8.g\L	8.ee-\L	8.gg\L	8.ee-\L	8.gg\L
8E-\	.	.	.	.	.	.	.	.	.	.	.	.	.	.	.	.	.	.	.	.	.
.	.	32d\LL	32f\LL	32d/LL	.	32f/LL	.	.	.	.	.	.	.	.	.	32f\LL	32a-\LL	32dd\LL	32ff\LL	32dd\LL	32ff\LL
.	.	32e-\JJJ	32g\JJJ	32e-/JJJ	.	32g/JJJ	.	.	.	.	.	.	.	.	.	32e-\JJJ	32g\JJJ	32ee-\JJJ	32gg\JJJ	32ee-\JJJ	32gg\JJJ
8D\	.	8f\L	8a-\L	8f/L	.	8a-/L	.	.	.	.	.	.	.	.	.	8f\L	8a-\L	8ff\L	8aa-\L	8ff\L	8aa-\L
8E-\J	.	8e-\J	8g\J	8e-/J	.	8g/J	.	.	.	.	.	.	.	.	.	8e-\J	8g\J	8ee-\J	8gg\J	8ee-\J	8gg\J
!	!	!LO:LB:g=original	!	!	!	!	!	!	!	!	!	!	!	!	!	!	!LO:LB:g=original	!	!LO:LB:g=original	!	!
=23	=23	=23	=23	=23	=23	=23	=23	=23	=23	=23	=23	=23	=23	=23	=23	=23	=23	=23	=23	=23	=23
4BB-/	.	8d\	8f\	8d/	.	8f/	.	.	.	.	.	.	.	.	1ryy	8B-/	8f\	8dd\	8ff\	8dd\	8ff\
.	.	4f\	4a-\	4f/	.	4a-/	.	.	.	.	.	.	.	.	.	4f\	4a-\	4ff\	4aa-\	4ff\	4aa-\
4BB-/	.	.	.	.	.	.	.	.	.	.	.	.	.	.	.	.	.	.	.	.	.
.	.	8e-\	8g\	8e-/	.	8g/	.	.	.	.	.	.	.	.	.	8e-\	8g\	8ee-\	8gg\	8ee-\	8gg\
4BB-/	.	4e-\	4g\	4e-/	.	4g/	.	.	.	.	.	.	.	.	.	4e-\	4g\	4ee-\	4gg\	4ee-\	4gg\
4BB-/	.	4d\	4f\	4d/	.	4f/	.	.	.	.	.	.	.	.	.	4B-/	4f\	4dd\	4ff\	4dd\	4ff\
!	!	!	!	!LO:PB:g=original	!	!	!	!	!	!LO:LB:g=original	!	!	!	!	!	!LO:LB:g=original	!	!	!	!	!
=24	=24	=24	=24	=24	=24	=24	=24	=24	=24	=24	=24	=24	=24	=24	=24	=24	=24	=24	=24	=24	=24
!	!	!LO:TX:a:t=3	!LO:TX:a:t=3	!	!	!	!	!	!	!	!	!	!	!	!	!LO:TX:a:t=1.	!	!	!	!LO:TX:a:t=3	!LO:TX:a:t=3
4E-\	p	0r	0r	2r	.	8.e-/L	p	1r	.	2r	.	8.e-\	Ho-	.	1ryy	1r	1r	2r	8.ee-\L	0r	0r
.	.	.	.	.	.	16e-/K	.	.	.	.	.	16e-\	-sti-	.	.	.	.	.	16ee-\Jk	.	.
4r	.	.	.	.	.	8e-/	.	.	.	.	.	8e-\	-as	.	.	.	.	.	8ee-\L	.	.
.	.	.	.	.	.	8e-/J	.	.	.	.	.	8e-\	et	.	.	.	.	.	8ee-\J	.	.
!	!	!	!	!	!	!	!	!	!	!	!	!LO:LB:g=original	!	!	!	!	!	!	!	!	!
4BB-/	.	.	.	8.B-/L	.	8b-/L	.	.	.	8.B-\	Ho-	8b-\	pre-	.	.	.	.	8.b-\L	8bb-\L	.	.
.	.	.	.	.	.	8b-/	.	.	.	.	.	8b-\	-ces	.	.	.	.	.	8bb-\	.	.
.	.	.	.	16B-/K	.	.	.	.	.	16B-\	-sti-	.	.	.	.	.	.	16b-\K	.	.	.
4r	.	.	.	8B-/	.	8b-/	.	.	.	8B-\	-as	8b-\	ti-	.	.	.	.	8b-\	8bb-\	.	.
.	.	.	.	8B-/J	.	8a-/J	.	.	.	8B-\	et	8a-\	-bi	.	.	.	.	8b-\J	8aa-\J	.	.
!	!	!	!	!	!	!LO:LB:g=original	!	!	!	!	!	!	!	!	!	!	!	!	!	!	!
=25	=25	=25	=25	=25	=25	=25	=25	=25	=25	=25	=25	=25	=25	=25	=25	=25	=25	=25	=25	=25	=25
!	!	!	!	!	!	!LO:TX:a:t=P:problem=mixed beam	!	!	!	!	!	!	!	!	!	!	!	!	!	!	!
8.E-\L	.	.	.	8e-/L	.	8g/L	.	8.E-\	Ho-	8e-\	pre-	4.g\	Do-	.	1ryy	8.E-/L	8.E-/L	2ee-\	2gg\	.	.
.	.	.	.	8g/	.	8ee-\	.	.	.	8e-\	-ces	.	.	.	.	.	.	.	.	.	.
16E-\K	.	.	.	.	.	.	.	16E-\	-sti-	.	.	.	.	.	.	16E-/K	16E-/K	.	.	.	.
!	!	!	!	!	!	!	!	!LO:LB:g=original	!	!	!	!	!	!	!	!	!	!	!	!	!
8E-\	.	.	.	8g/	.	8ee-\	.	8E-\	-as	8d\	ti-	.	.	.	.	8E-/	8E-/	.	.	.	.
8E-\J	.	.	.	8g/J	.	8ee-\J	.	8E-\	et	8d\	-bi	8g\	-mi-	.	.	8E-/J	8E-/J	.	.	.	.
!LO:LB:g=original	!	!	!	!	!	!	!	!	!	!	!	!	!	!	!	!	!	!	!	!	!
8.B-\L	.	.	.	8f/L	.	8dd\L	.	8B-\	pre-	4.d\	Do-	4f\	-ne	.	.	8BB-/L	8B-/L	4dd\	4ff\	.	.
!	!LO:DY:t=po	!	!	!	!	!	!	!	!	!	!	!	!	!	!	!	!	!	!	!	!
.	p	.	.	8d/	.	8b-\	.	8B-\	-ces	.	.	.	.	.	.	8BB-/	8B-/	.	.	.	.
16B-\K	.	.	.	.	.	.	.	.	.	.	.	.	.	.	.	.	.	.	.	.	.
8B-\	.	.	.	8e-/	.	8cc\	.	8B-\	ti-	.	.	4r	.	.	.	8BB-/	8B-/	4r	4r	.	.
8A-\J	.	.	.	8f/J	.	8dd\J	.	8A-\	-bi	8c\	-mi-	.	.	.	.	8BB-/J	8B-/J	.	.	.	.
=26	=26	=26	=26	=26	=26	=26	=26	=26	=26	=26	=26	=26	=26	=26	=26	=26	=26	=26	=26	=26	=26
8.G\L	.	1r	1r	8g/L	.	8ee-\L	.	8.G\	Do-	4B-\	-ne	4r	.	.	1ryy	4E-/	4e-\	2.ee-\	4r	1r	1r
.	.	.	.	8a-/	.	8ee-\	.	.	.	.	.	.	.	.	.	.	.	.	.	.	.
!LO:N:vis=8	!	!	!	!	!	!	!	!	!	!	!	!	!	!	!	!	!	!	!	!	!
16F\K	.	.	.	.	.	.	.	16F\	-mi-	.	.	.	.	.	.	.	.	.	.	.	.
*	*	*	*	*	*	*	*	*	*	*	*	*2\right	*	*	*	*	*	*	*	*	*
8G\	.	.	.	8b-/	.	8ee-\	.	4E-\	-ne	4r	.	2e-\	Lau-	.	.	4r	4r	.	4bb-\	.	.
8E-\J	.	.	.	8g/J	.	8ee-\J	.	.	.	.	.	.	.	.	.	.	.	.	.	.	.
8A-\L	.	.	.	8cc\L	.	8ee-\L	.	4A-\	Lau-	4c\	Lau-	.	.	.	.	2r	2r	.	4ccc\	.	.
8A-\	.	.	.	8cc\	.	8ee-\	.	.	.	.	.	.	.	.	.	.	.	.	.	.	.
8G\	.	.	.	8b-\	.	8ee-\	.	8G\	-dis	8B-\	-dis	8e-\	-dis	.	.	.	.	4ee-\	4bb-\	.	.
8G\J	.	.	.	8b-\J	.	8ee-\J	.	8G\	of-	8B-\	of-	8e-\	of-	.	.	.	.	.	.	.	.
!	!	!	!	!	!	!	!	!	!	!LO:LB:g=original	!	!	!	!	!	!	!	!	!	!	!
=27	=27	=27	=27	=27	=27	=27	=27	=27	=27	=27	=27	=27	=27	=27	=27	=27	=27	=27	=27	=27	=27
8F\L	.	2r	2r	8a-/L	.	8ee-\L	.	4.F\	-fe-	4.A-/	-fe-	4e-\	-fer-	.	1ryy	2r	2r	4ee-\	2aa-\	2r	2r
8F\	.	.	.	8a-/	.	8ee-\	.	.	.	.	.	.	.	.	.	.	.	.	.	.	.
8F\	.	.	.	8a-/	.	8dd\	.	.	.	.	.	4d\	-ri-	.	.	.	.	4dd\	.	.	.
!	!	!	!	!LO:TX:b:i:t=dol	!	!	!	!	!	!	!	!	!	!	!	!	!	!	!	!	!
8F\J	.	.	.	8a-/J	.	8dd\J	.	8F\	-ri-	8A-/	-ri-	.	.	.	.	.	.	.	.	.	.
4E-\	.	4r	4r	8g/L	.	8r	.	4E-\	-mus	4G/	-mus	4e-\	-mus	.	.	8r	8r	4ee-\	4gg\	4r	4r
.	.	.	.	8b-/	.	(8ee-\L	.	.	.	.	.	.	.	.	.	8g\L	8b-\L	.	.	.	.
!	!	!	!	!	!	!LO:TX:b:i:t=dol&colon;:problem=zapisane czerwonym kolorem	!	!	!	!	!	!	!	!	!	!	!	!	!	!	!
8r	.	8r	8r	8g/	.	8b-\	.	8r	.	4r	.	4r	.	.	.	8f\	8a-\	4r	4r	8r	8r
8E-\	.	8e-\	8e-\	8e-/J	.	8g\J)	.	8E-\	Tu	.	.	.	.	.	.	8e-\J	8g\J	.	.	8ee-\	8ee-\
!	!	!	!	!	!	!	!	!LO:LB:g=original	!	!	!	!	!	!	!	!	!	!LO:LB:g=original	!	!	!
=28	=28	=28	=28	=28	=28	=28	=28	=28	=28	=28	=28	=28	=28	=28	=28	=28	=28	=28	=28	=28	=28
!	!	!	!	!	!	!	!	!	!	!	!	!	!	!	!	!	!	!LO:TX:a:t=1.	!	!	!
8.B-\L	.	8.b-\L	8.b-\L	4d/	.	4f/	.	8.B-\	Sus-	4r	.	1r	.	.	1ryy	4B-/	4f\	1r	1r	8.bb-\L	8.bb-\L
16B-\K	.	16b-\Jk	16b-\K	.	.	.	.	16B-\	-ci-	.	.	.	.	.	.	.	.	.	.	16bb-\Jk	16bb-\K
8B-\	.	8b-\L	8b-\	8r	.	8r	.	8B-\	-pe	8r	.	.	.	.	.	4r	4r	.	.	8bb-\L	8bb-\
8A-\J	.	8a-\J	8b-\J	8d/	p	8f/	p	8A-\	pro	8B-\	tu	.	.	.	.	.	.	.	.	8aa-\J	8bb-\J
!	!	!	!	!LO:LB:g=original	!	!	!	!	!	!	!	!	!	!	!	!	!	!	!	!	!LO:LB:g=original
8G\L	.	8g\L	8ee-\L	8.e-/L	.	8b-/L	.	8G\L	a-	8.e-\	Sus-	.	.	.	.	2r	2r	.	.	8gg\L	8eee-\L
8F\	.	8f\	8ee-\	.	.	8a-/	.	8F\J	.	.	.	.	.	.	.	.	.	.	.	8ff\	8eee-\
.	.	.	.	16e-/K	.	.	.	.	.	16e-\	-ci-	.	.	.	.	.	.	.	.	.	.
8G\	.	8g\	8ee-\	8e-/	.	8b-/	.	8G\L	-ni-	8e-\	-pe	.	.	.	.	.	.	.	.	8gg\	8eee-\
8E-\J	.	8e-\J	8ee-\J	8e-/J	.	8g/J	.	8E-\J	.	8e-\	pro	.	.	.	.	.	.	.	.	8ee-\J	8eee-\J
=29	=29	=29	=29	=29	=29	=29	=29	=29	=29	=29	=29	=29	=29	=29	=29	=29	=29	=29	=29	=29	=29
!	!	!	!	!	!	!	!	!	!	!	!	!	!	!	!	!LO:TX:a:t=3	!LO:TX:a:t=3.	!	!	!	!
4.F\	.	4.f\	8dd-X\L	8d-X/L	.	4.a-/	.	4.F\	-ma-	8d-X\	a-	2r	.	.	1ryy	0r	0r	2r	2r	4.ff\	8ddd-X\L
.	.	.	8cc\	8c/	.	.	.	.	.	8c\	-ni-	.	.	.	.	.	.	.	.	.	8ccc\
.	.	.	8dd-\	8d-/	.	.	.	.	.	8d-\	-ma-	.	.	.	.	.	.	.	.	.	8ddd-\
8G\	.	8g\	8b-\J	8c/J	.	8b-/	.	8G\	-bus	8c\	-bus	.	.	.	.	.	.	.	.	8gg\	8bb-\J
!	!	!	!	!	!	!LO:LB:g=original	!	!	!	!	!	!	!	!	!	!	!	!	!	!	!
4.A-\	.	4a-\	4cc\	8c/L	.	4e-/	.	4A-\	il-	4c\	il-	4r	.	.	.	.	.	4r	4r	4aa-\	4ccc\
.	.	.	.	8en/J	.	.	.	.	.	.	.	.	.	.	.	.	.	.	.	.	.
!	!	!	!	!	!	!	!	!	!	!	!	!LO:TX:a:t=P:problem=brak początku ligatury	!	!	!	!	!	!	!	!	!
.	.	4r	4r	4f/	.	8r	.	4A-\	-lis	4c\	-lis	[<4a-\	qua-	.	.	.	.	[<4cc\	4aa-\	4r	4r
8G\	.	.	.	.	.	8b-\	.	.	.	.	.	.	.	.	.	.	.	.	.	.	.
!LO:LB:g=original	!	!	!LO:LB:g=original	!	!	!	!	!	!	!LO:LB:g=original	!	!LO:LB:g=original	!	!	!	!	!	!	!	!LO:LB:g=original	!
=30	=30	=30	=30	=30	=30	=30	=30	=30	=30	=30	=30	=30	=30	=30	=30	=30	=30	=30	=30	=30	=30
!	!	!	!LO:TX:a:t=2.	!	!	!	!	!	!	!	!	!	!	!	!	!	!	!	!	!LO:TX:a:t=2.	!LO:TX:a:t=2
8.F\L	.	0r	0r	8.f/L	.	8.a-/L	.	4F\	qua-	4c\	qua-	4.a-\]	-rum	.	1ryy	.	.	4cc\]	2aa-\	0r	0r
16F\K	.	.	.	16f/K	.	16a-/K	.	.	.	.	.	.	.	.	.	.	.	.	.	.	.
8F\	.	.	.	8f/	.	8a-/	.	4F\	-rum	4f\	-rum	.	.	.	.	.	.	4ff\	.	.	.
8F\J	.	.	.	8f/J	.	8a-/J	.	.	.	.	.	8a-\	ho-	.	.	.	.	.	.	.	.
!	!	!	!	!	!	!	!	!	!	!	!	!	!	!	!	!	!	!	!LO:LB:g=original	!	!
8.c\L	.	.	.	8.f/L	.	8.a-/L	.	8.c\	ho-	8.f\	ho-	8.a-\	-di-	.	.	.	.	8.ff\L	8.aa-\L	.	.
16c\K	.	.	.	16en/Jk	.	16g/Jk	.	16c\	-di-	16en\	-di-	16g\	-e	.	.	.	.	16eeX\Jk	16gg\Jk	.	.
8c\	.	.	.	4e/	.	4g/	.	4c\	-e	8e\	-e	8g\	me-	.	.	.	.	8ee\L	8gg\L	.	.
8B-\J	.	.	.	.	.	.	.	.	.	8e\	me-	8g\	-mo-	.	.	.	.	8ee\J	8gg\J	.	.
=31	=31	=31	=31	=31	=31	=31	=31	=31	=31	=31	=31	=31	=31	=31	=31	=31	=31	=31	=31	=31	=31
!LO:TX:b:i:t=dol&colon;	!	!	!	!LO:TX:b:i:t=dol	!	!	!	!LO:TX:a:t=1.	!	!	!	!	!	!	!	!	!	!	!	!	!
8A-\L	.	.	.	8f/L	.	8a-/L	.	1r	.	4f\	-mo-	4a-\	-ri-	.	1ryy	1r	1r	4ff\	4aa-\	.	.
8A-\	.	.	.	8f/	.	8a-/	.	.	.	.	.	.	.	.	.	.	.	.	.	.	.
!	!	!	!	!	!	!LO:TX:b:i:t=dolc&colon;:problem=zapisane czerwonym kolorem	!	!	!	!	!	!	!	!	!	!	!	!	!	!	!
8A-\	.	.	.	8e-/	.	8g/	.	.	.	8e-\	-ri-	4g\	-am	.	.	.	.	4ee-\	4gg\	.	.
8A-\J	.	.	.	8e-/J	.	8g/J	.	.	.	8e-\	-am	.	.	.	.	.	.	.	.	.	.
8An\L	.	.	.	8e-/L	.	8g/L	.	.	.	4.e-\	fa-	4.g\	fa-	.	.	.	.	2ee-T\	2ggt\	.	.
8A\	.	.	.	8e-/	.	8g/	.	.	.	.	.	.	.	.	.	.	.	.	.	.	.
8A\	.	.	.	8e-/	.	8g/	.	.	.	.	.	.	.	.	.	.	.	.	.	.	.
8A\J	.	.	.	8e-/J	.	8g/J	.	.	.	8d\	-ci-	8f\	-ci-	.	.	.	.	.	.	.	.
!	!	!	!	!	!	!	!	!LO:LB:g=original	!	!	!	!	!	!	!	!	!	!	!	!	!
=32	=32	=32	=32	=32	=32	=32	=32	=32	=32	=32	=32	=32	=32	=32	=32	=32	=32	=32	=32	=32	=32
8r	.	8r	8r	4d/	.	4f/	.	8r	.	4d\	-mus	4f\	-mus	.	1ryy	4B-/	4b-\	4dd\	4ff\	8r	8r
8B-\L	.	8b-\L	8dd\L	.	.	.	.	8B-\	fac	.	.	.	.	.	.	.	.	.	.	8bb-\L	8ddd\L
8An\	.	8cc\	8ee-\	8r	.	8r	.	8An\	e-	8r	.	8r	.	.	.	4r	4r	8r	8r	8ccc\	8eee-\
8B-\J	.	8b-\J	8dd\J	8d/	.	8f/L	p	8B-\	-as	8d\	fac	8f\	fac	.	.	.	.	8dd\	8ff\	8bb-\J	8ddd\J
!	!	!LO:LB:g=original	!	!LO:LB:g=original	!	!	!	!	!	!	!	!	!	!	!	!	!	!	!	!	!
8r	.	8r	8r	8e-/L	.	8g/	.	8r	.	8e-\	e-	8g\	e-	.	.	4B-/	4b-\	8ee-\L	8gg\L	8r	8r
8B-\L	.	8b-\L	8dd\L	8d/J	.	8f/J	.	8B-\	de	8d\	-as	8f\	-as	.	.	.	.	8dd\J	8ff\J	8bb-\L	8ddd\L
8An\	.	8cc\	8ee-\	8r	.	8r	.	8An\	mor-	8r	.	8r	.	.	.	4r	4r	8r	8r	8ccc\	8eee-\
!	!	!	!	!	!	!	!	!	!	!LO:TX:b:t=Cito Vertate&colon;	!	!	!	!	!	!	!	!	!	!	!
8B-\J	.	8b-\J	8dd\J	8d/	.	8f/	.	8B-\	-te	8d\	de	8f\	,de	.	.	.	.	8dd\	8ff\	8bb-\J	8ddd\J
!	!	!	!	!	!	!LO:PB:g=original	!	!	!	!LO:PB:g=original	!	!	!	!	!	!	!LO:LB:g=original	!	!	!	!
=33	=33	=33	=33	=33	=33	=33	=33	=33	=33	=33	=33	=33	=33	=33	=33	=33	=33	=33	=33	=33	=33
8r	.	8r	8r	8e-/L	.	8g-X/L	.	8r	.	8e-\	mor-	8g-X\	Mor-	.	1ryy	4B-/	4b-\	8ee-\L	8gg-X\L	8r	8r
!LO:TX:b:i:t=dolce	!	!	!	!	!	!	!	!	!	!	!	!	!	!	!	!	!	!	!	!	!
8B-\L	.	8b-\L	8dd\L	8d/J	.	8f/J	.	8B-\	tran-	8d\	-te	8f\	-te	.	.	.	.	8dd\J	8ff\J	8bb-\L	8ddd\L
8An\	.	8cc\	8ee-\	8r	.	8r	.	8An\	-si-	8r	.	8r	.	.	.	4r	4r	8r	8r	8ccc\	8eee-\
!	!	!	!	!LO:TX:b:i:t=dolce	!	!	!	!	!	!	!	!	!	!	!	!	!	!	!	!	!
8B-\J	.	8b-\J	8dd\J	8d/	.	8f/	.	8B-\	-re	8d\	tran-	8f\	tran-	.	.	.	.	8dd\	8ff\	8bb-\J	8ddd\J
!	!	!	!	!	!	!	!	!	!	!	!	!LO:LB:g=original	!	!	!	!	!	!	!LO:SIC:s=8aan:v	!	!
4E-\	.	2r	2r	8e-/L	.	8gn/L	.	2r	.	8e-\L	-si-	(8gn\L	-si-	.	.	2r	2r	8ee-\L	8gg-\L	2r	2r
.	.	.	.	8a-/	.	8cc/	.	.	.	8c\J	.	8a-\J)	.	.	.	.	.	8aa-\J	8ccc\J	.	.
4AA-X/	.	.	.	8g/	.	8b-/	.	.	.	8B-\	-re	8g\	-re	.	.	.	.	8gg\L	8bb-\L	.	.
.	.	.	.	8f/J	.	8a-/J	.	.	.	8A-\	ad	8f\	ad	.	.	.	.	8ff\J	8aa-\J	.	.
!LO:LB:g=original	!	!	!	!	!	!	!	!	!	!	!	!	!	!	!	!	!	!	!	!	!
=34	=34	=34	=34	=34	=34	=34	=34	=34	=34	=34	=34	=34	=34	=34	=34	=34	=34	=34	=34	=34	=34
!	!	!	!	!	!	!	!	!	!	!	!	!	!	!	!	!LO:TX:a:t=3	!LO:TX:a:t=3	!	!	!	!
4BB-/	.	2r	2r	4e-/	.	4g/	.	4r	.	4G/	vi-	(4e-\	vi-	.	1ryy	0r	0r	4ee-\	4gg\	2r	2r
4BB-/	.	.	.	4d/	.	4f/	.	4BB-/	tu	4F/	.	4d\)	.	.	.	.	.	4dd\	4ff\	.	.
8.E-\L	.	4r	4r	4e-/	.	4e-/	.	8.E-\	sus-	4E-/	-tam	4e-\	-tam	.	.	.	.	4ee-\	4ee-\	4r	4r
16E-\K	p	.	.	.	.	.	.	16E-\	-ci-	.	.	.	.	.	.	.	.	.	.	.	.
8E-\	.	8r	8r	8r	.	8r	.	8E-\	-pe	8r	.	8r	.	.	.	.	.	4ee-\	[<4ee-\	8r	8r
!	!	!	!	!	!LO:DY:t=po	!	!	!	!	!	!	!	!	!	!	!	!	!	!	!	!
8E-\J	.	8g\	8b-\	8g/	p	8b-\	.	8G\	pro	8B-\	pro	8e-\	pro	.	.	.	.	.	.	8gg\	8bb-\
!	!	!	!	!	!	!	!	!	!	!	!	!	!	!	!	!	!	!LO:LB:g=original	!	!	!LO:LB:g=original
=35	=35	=35	=35	=35	=35	=35	=35	=35	=35	=35	=35	=35	=35	=35	=35	=35	=35	=35	=35	=35	=35
8E-\L	.	8g\L	8b-\L	8g/L	.	8b-\L	.	8G\	a-	8B-\	a-	8e-\	a-	.	1ryy	.	.	2ee-\	2ee-\]	8gg\L	8bb-\L
8E-\	.	8a-\	8cc\	8a-/	.	8cc\	.	8A-\	-ni-	8c\	-ni-	8e-\	-ni-	.	.	.	.	.	.	8aa-\	8ccc\
8E-\	.	8a-\	8cc\	8a-/	.	8cc\	.	8A-\	-ma-	8c\	-ma-	8e-\	-ma-	.	.	.	.	.	.	8aa-\	8ccc\
8E-\J	.	8b-\J	8dd-X\J	8b-/J	.	8dd-X\J	.	8B-\	-buſ	8d-X\	-bus	8e-\	-bus	.	.	.	.	.	.	8bb-\J	8ddd-X\J
*Xtremolo	*	*	*	*	*	*	*	*	*	*	*	*	*	*	*	*	*	*	*	*	*
!	!	!	!	!	!	!LO:TX:a:t=P:problem=mixed beam	!LO:LB:g=original	!	!LO:LB:g=original	!	!	!	!	!	!	!	!	!	!	!	!
8G\L	.	8b-\L	8dd-\L	8b-/L	.	8dd-\L	.	8B-\	il-	8d-\	il-	8e-\	il-	.	.	.	.	8ee-\L	8ee-\L	8bb-\L	8ddd-\L
8A-\	.	8a-\J	8cc\J	8a-/J	.	8cc\	.	8A-\	-lis	8c\	-lis	8e-\	-lis	.	.	.	.	8ee-\J	8ee-\J	8aa-\J	8ccc\J
!LO:TX:b:i:t=dol&colon;	!	!	!	!LO:TX:a:i:t=dol	!	!LO:TX:a:i:t=dol&colon;:problem=zapisane czerwonym kolorem	!	!	!	!	!	!	!	!	!	!	!	!	!	!	!
8c\	.	4r	4r	8c/L	.	8c/	.	8c\	qua-	4r	.	4r	.	.	.	.	.	4r	4r	4r	4r
8B-\J	.	.	.	8B-/J	.	8B-/J	.	8B-\	-rum	.	.	.	.	.	.	.	.	.	.	.	.
!	!	!	!	!	!	!	!	!	!	!	!	!	!	!	!	!	!	!	!LO:LB:g=original	!	!
=36	=36	=36	=36	=36	=36	=36	=36	=36	=36	=36	=36	=36	=36	=36	=36	=36	=36	=36	=36	=36	=36
8.An\L	.	4r	4r	4An/	.	4An/	.	8.An\	ho-	4r	.	4r	.	.	1ryy	1r	1r	4r	4r	4r	4r
16G\K	.	.	.	.	.	.	.	16G\	-di-	.	.	.	.	.	.	.	.	.	.	.	.
8F\	.	8r	8r	8r	.	8r	.	4F\	-e	8r	.	8r	.	.	.	.	.	4ff\	4ff\	8r	8r
!	!LO:DY:t=p	!LO:TX:a:t=P:problem=po tej nucie błędna kreska taktowa	!	!	!	!	!	!	!	!	!	!	!	!	!	!	!	!	!	!	!
8F\J	p	8an\	8cc\	8an/	.	8cc\	.	.	.	8An\	me-	8c\	me-	.	.	.	.	.	.	8aan\	8ccc\
!LO:TX:a:t=P:problem=mixed beam	!	!	!	!LO:LB:g=original	!LO:DY:t=po	!LO:LB:g=original	!	!	!	!	!	!	!	!	!	!	!	!	!	!	!
8F\L	.	8a\L	8cc\L	(8an/L	p	(8cc\L	p	2r	.	8A\	-mo-	8c\	-mo-	.	.	.	.	[<2ff\	[<2ff\	8aa\L	8ccc\L
8FF/	.	8b-\J	8dd\J	8b-/J)	.	8dd\J)	.	.	.	16B-\	-ri-	8d\	-riam	.	.	.	.	.	.	8bb-\J	8ddd\J
.	.	.	.	.	.	.	.	.	.	16B-\	-am	.	.	.	.	.	.	.	.	.	.
8FF/	.	4ccT\	4ee-\	4ccT\	.	4ee-T\	.	.	.	8.c\	fa-	8.e-\	fa-	.	.	.	.	.	.	4cccT\	4eee-\
8FF/J	.	.	.	.	.	.	.	.	.	.	.	.	.	.	.	.	.	.	.	.	.
.	.	.	.	.	.	.	.	.	.	16B-\	-ci-	16d\	-ci-	.	.	.	.	.	.	.	.
!	!	!	!	!	!	!	!	!	!	!	!	!LO:LB:g=original	!	!	!	!LO:LB:g=original	!	!	!	!	!
=37	=37	=37	=37	=37	=37	=37	=37	=37	=37	=37	=37	=37	=37	=37	=37	=37	=37	=37	=37	=37	=37
8r	.	4b-\	4dd\	8b-\	.	8dd\	.	8r	.	4B-\	-mus	4d\	-mus	.	1ryy	4B-/	4b-\	4ff\]	4ff\]	4bb-\	4ddd\
8BB-/L	.	.	.	(8d/L	.	(8f/L	.	8B-\	fac	.	.	.	.	.	.	.	.	.	.	.	.
8AAn/	.	8r	8r	8e-/	.	8g/	.	8An\	e-	8r	.	8r	.	.	.	4r	4r	8r	8r	8r	8r
8BB-/J	.	8b-\	8b-\	8d/J)	.	8f/J)	.	8B-\	-as	8d\	fac	8f\	fac	.	.	.	.	8dd\	8ff\	8bb-\	8bb-\
!	!	!LO:LB:g=original	!LO:LB:g=original	!	!	!	!	!	!	!LO:LB:g=original	!	!	!	!	!	!	!	!	!	!LO:LB:g=original	!
8r	.	8an\L	8an\L	8r	.	8r	.	8r	.	8e-\	e-	8g\	e-	.	.	4B-/	4b-\	8ee-\L	8gg\L	8aan\L	8aan\L
8BB-/L	.	8b-\J	8b-\J	(8d/L	.	(8f/L	.	8B-\	de	8d\	-as	8f\	-as	.	.	.	.	8dd\J	8ff\J	8bb-\J	8bb-\J
8AA/	.	8r	8r	8e-/	.	8g-X/	.	8An\	mor-	8r	.	8r	.	.	.	4r	4r	8r	8r	8r	8r
8BB-/J	.	8b-\	8b-\	8d/J)	.	8f/J)	.	8B-\	-te	8d\	de	8f\	de	.	.	.	.	8dd\	8ff\	8bb-\	8bb-\
=38	=38	=38	=38	=38	=38	=38	=38	=38	=38	=38	=38	=38	=38	=38	=38	=38	=38	=38	=38	=38	=38
8r	.	8an\L	8an\L	8r	.	8r	.	8r	.	8e-\	mor-	8g-X\	mor-	.	1ryy	4B-/	4b-\	8ee-\L	8gg-X\L	8aan\L	8aan\L
8BB-/L	.	8b-\J	8b-\J	8d/L	.	8f/L	.	8B-\	Tran-	8d\	-te	8f\	-te	.	.	.	.	8dd\J	8ff\J	8bb-\J	8bb-\J
8AAn/	.	8r	8r	8e-/	.	8g-X/	.	8An\	-si-	8r	.	8r	.	.	.	4r	4r	8r	8r	8r	8r
8BB-/J	.	8b-\	8b-\	8d/J	.	8f/J	.	8B-\	-re	8d\	tran-	8f\	tran-	.	.	.	.	8dd\	8ff\	8bb-\	8bb-\
!	!	!	!	!	!	!LO:TX:b:i:t=dolce:problem=zapisane czerwonym kolorem	!	!	!	!	!	!	!	!	!	!	!	!	!	!	!
8E-\L	.	8e-\L	8e-\L	8e-/L	.	8g-/L	.	4r	.	2e-\	-si-	2g-X\	-si-	.	.	2r	2r	2ee-\	2gg-X\	8ee-\L	8eee-\L
!	!	!	!	!LO:TX:b:i:t=dolce	!	!	!	!	!	!	!	!	!	!	!	!	!	!	!	!	!
8E-\	.	8e-\J	8e-\	8e-/	.	8g-/	.	.	.	.	.	.	.	.	.	.	.	.	.	8ee-\	8eee-\
8E-\	.	8e-\L	8e-\	8e-/	.	8g-/	.	4E-\	tran-	.	.	.	.	.	.	.	.	.	.	8ee-\	8eee-\
8D-X\J	.	8d-X\J	8d-X\J	8e-/J	.	8g-/J	.	.	.	.	.	.	.	.	.	.	.	.	.	8dd-X\J	8ddd-X\J
!LO:PB:g=original	!	!	!	!	!	!	!	!LO:LB:g=original	!	!	!	!	!	!	!	!	!	!	!	!	!
=39	=39	=39	=39	=39	=39	=39	=39	=39	=39	=39	=39	=39	=39	=39	=39	=39	=39	=39	=39	=39	=39
!	!	!	!	!	!	!LO:SIC:s=8g-:v	!	!	!	!	!	!LO:SIC:s=4.g-:v	!	!	!	!LO:TX:a:t=2	!	!	!LO:SIC:s=4.g-:v	!	!
8C-X/L	.	8c-X/L	8c-X/L	8e-/L	.	8g/L	.	4C-X/	-si-	4.e-\	-re	4.g\	-re	.	1ryy	0r	0r	4.ee-\	4.gg\	8ccc-X\L	8ccc-X\L
!	!	!	!	!	!	!LO:SIC:s=8g-:v	!	!	!	!	!	!	!	!	!	!	!	!	!	!	!
8C-/	.	8c-/	8c-/	8e-/	.	8g/	.	.	.	.	.	.	.	.	.	.	.	.	.	8ccc-\	8ccc-\
!	!	!	!	!	!	!LO:SIC:s=8g-:v	!	!	!	!	!	!	!	!	!	!	!	!	!	!	!
8C-/	.	8c-/	8c-/	8e-/	.	8g/	.	8C-/	-re	.	.	.	.	.	.	.	.	.	.	8ccc-\	8ccc-\
!	!	!	!	!	!	!LO:SIC:s=8g-:v	!	!	!	!	!	!LO:SIC:s=8g-:v	!	!	!	!	!	!	!LO:SIC:s=8g-:v	!	!
8BB-/J	.	8B-/J	8B-/J	8e-/J	.	8g/J	.	8BB-/	ad	8e-\	ad	8g\	ad	.	.	.	.	8ee-\	8gg\	8bb-\J	8bb-\J
!	!	!	!	!	!	!LO:SIC:s=2g-:v	!	!	!	!	!	!LO:SIC:s=2g-:v	!	!	!	!	!	!	!LO:SIC:s=2g-:v	!	!
2AAn;/	.	2An;/	2An;/	2e-;/	.	2g;/	.	2AAn/	vi-	2e-;\	vi-	2g;\	vi-	.	.	.	.	2ee-;\	2gg;\	2aan\	2aan;\
!	!	!	!	!	!	!	!	!	!	!LO:LB:g=original	!	!	!	!	!	!	!	!	!	!	!
=40	=40	=40	=40	=40	=40	=40	=40	=40	=40	=40	=40	=40	=40	=40	=40	=40	=40	=40	=40	=40	=40
!	!	!	!	!	!	!LO:SIC:s=2f:v	!	!	!	!	!	!	!	!	!	!	!	!	!	!	!
2BB-/	.	2B-/	2B-/	2d/	.	2g/	.	2BB-/	-tam	2d\	-tam	2f\	-tam	.	1ryy	.	.	2dd\	2ff\	2bb-\	2bb-\
!	!	!	!	!	!	!	!	!	!	!	!	!	!	!	!	!	!	!	!LO:TX:b:i:t=Vertatur. Cito	!	!
2rC	.	2r	2r	2r	.	2r	.	2r	.	2r	.	2r	.	.	.	.	.	2r	2r	2r	2r
==	==	==	==	==	==	==	==	==	==	==	==	==	==	==	==	==	==	==	==	==	==
*-	*-	*-	*-	*-	*-	*-	*-	*-	*-	*-	*-	*-	*-	*-	*-	*-	*-	*-	*-	*-	*-
!!!system-decoration: [g1][g2][g3][g4]s15
!!!RDF**kern: > = above
!!!RDF**kern: < = below
!!!RDF**dynam: p = "po:"
!!!RDF**dynam: f = "f:"
!!!RDF**kern: | = vertical stroke
!!!ENC: Andrzej Kubiczek
!!!END: 2020-07-05
!!!ENC: Marta Lawrence
!!!END: 2020-09-26
!!!YEC: Copyright 2022 Narodowy Instytut Fryderyka Chopina (https://polishscores.org)
!!!YEM: License CC-BY-4.0 (https://creativecommons.org/licenses/by/4.0)
